X:453
T:Dublin Lads, The
R:reel
Z:id:hn-reel-453
M:C|
K:G
~g3d BG~G2|ABcA DFAd|~g3d Bcde|1 fdcA GABd:|2 fdcA ~G3c||
|:BGAF DEFE|~F2df ecdc|BGAF Dfeg|1 fdcA ~G3c:|2 fdcA GABc||
|:dg~g2 dg~g2|dffe fgfe|1 dg~g2 d^cde|fdcA GABc:|2 defg ~a3g|fdcA GABd||
